Origami/64x64/apps/vim.svg

<svg width="64" height="64" version="1" xmlns="http://www.w3.org/2000/svg">
 <path d="m31.999129 3.000059c-1.571499 0-3.144048 0.5857443-4.318781 1.7604495l-23.919924 23.92259c-2.3494678 2.349408-2.3461349 6.281166 0.00343 8.630576l23.919924 23.922591c2.349468 2.349411 6.28473 2.352743 8.634198 0.0034l23.919924-23.92259c2.349467-2.34941 2.349468-6.284534 0-8.633943l-23.919987-23.922624c-1.174733-1.174705-2.747283-1.7604495-4.318783-1.7604495z" style="opacity:.2"/>
 <path d="m31.999129 2.0000277c-1.571499 0-3.144048 0.5857443-4.318781 1.7604495l-23.919924 23.922591c-2.3494678 2.349408-2.3461349 6.281166 0.00343 8.630576l23.919924 23.922591c2.349468 2.349411 6.28473 2.352743 8.634198 0.0034l23.919924-23.92259c2.349467-2.34941 2.349468-6.284534 0-8.633943l-23.919987-23.922625c-1.174733-1.174705-2.747283-1.7604495-4.318783-1.7604495z" style="fill:#159532"/>
 <path d="M 32 2 C 30.428501 2 28.85442 2.5850604 27.679688 3.7597656 L 3.7597656 27.683594 C 2.460141 28.983185 1.8843413 30.765757 2.0234375 32.498047 C 2.1343057 31.098695 2.7099225 29.73341 3.7597656 28.683594 L 27.679688 4.7597656 C 28.85442 3.5850604 30.428501 3 32 3 C 33.5715 3 35.143626 3.5850606 36.318359 4.7597656 L 60.238281 28.683594 C 61.288124 29.733411 61.86495 31.099905 61.976562 32.5 C 62.114731 30.76679 61.537906 28.983186 60.238281 27.683594 L 36.318359 3.7597656 C 35.143626 2.5850606 33.5715 2 32 2 z" style="fill:#ffffff;opacity:.2"/>
 <path d="m9 11.001196c-1.662 0-3 1.338-3 3s1.338 3 3 3h1v34a6.0006 6.0006 0 0 0 10.193359 4.291016l39.22461-38.332032c1.460633-0.204055 2.582031-1.440372 2.582031-2.958984 0-1.662-1.338-3-3-3h-14c-1.662 0-3 1.338-3 3 0 0.888703 0.389896 1.676215 1 2.224609l-21 20.523438v-19.748047h1c1.662 0 3-1.338 3-3s-1.338-3-3-3h-14z" style="opacity:.2"/>
 <path d="m9 10.001165c-1.662 0-3 1.338-3 3s1.338 3 3 3h1v34a6.0006 6.0006 0 0 0 10.193359 4.291016l39.22461-38.332032c1.460633-0.204055 2.582031-1.440372 2.582031-2.958984 0-1.662-1.338-3-3-3h-14c-1.662 0-3 1.338-3 3 0 0.888703 0.389896 1.676215 1 2.224609l-21 20.523438v-19.748047h1c1.662 0 3-1.338 3-3s-1.338-3-3-3h-14z" style="fill:#e4e4e4"/>
 <path d="m9 10.001953c-1.662 0-3 1.338-3 3 0 0.171588 0.023374 0.336435 0.0507812 0.5 0.2374194-1.4215 1.4582602-2.5 2.9492188-2.5h14c1.490959 0 2.711799 1.0785 2.949219 2.5 0.027407-0.163565 0.050781-0.328412 0.050781-0.5 0-1.662-1.338-3-3-3h-14zm36 0c-1.662 0-3 1.338-3 3 0 0.164303 0.027153 0.320049 0.052734 0.476563 0.246725-1.410168 1.464311-2.476563 2.947266-2.476563h14c1.498366 0 2.724458 1.089498 2.953125 2.521485 0.029696-0.169426 0.046875-0.343048 0.046875-0.521485 0-1.662-1.338-3-3-3h-14zm-2.466797 5.681641l-20.533203 20.066406v1l21-20.523438c-0.17785-0.15986-0.330576-0.345885-0.466797-0.542968z" style="fill:#ffffff;opacity:.2"/>
</svg>

<svg xmlns="http://www.w3.org/2000/svg" width="64" height="64" version="1">
 <path d="m 31.999129,3.000059 c -1.571499,0 -3.144048,0.5857443 -4.318781,1.7604495 L 3.7604235,28.683099 c -2.3494678,2.349408 -2.3461349,6.281166 0.00343,8.630576 L 27.683777,61.236266 c 2.349468,2.349411 6.28473,2.352743 8.634198,0.0034 l 23.919924,-23.92259 c 2.349467,-2.34941 2.349468,-6.284534 0,-8.633943 L 36.317912,4.7605085 C 35.143179,3.5858035 33.570629,3.000059 31.999129,3.000059 Z" style="opacity:0.2"/>
 <path style="fill:#159532" d="m 31.999129,2.0000277 c -1.571499,0 -3.144048,0.5857443 -4.318781,1.7604495 L 3.7604235,27.683068 c -2.3494678,2.349408 -2.3461349,6.281166 0.00343,8.630576 L 27.683777,60.236235 c 2.349468,2.349411 6.28473,2.352743 8.634198,0.0034 l 23.919924,-23.92259 c 2.349467,-2.34941 2.349468,-6.284534 0,-8.633943 L 36.317912,3.7604772 C 35.143179,2.5857722 33.570629,2.0000277 31.999129,2.0000277 Z"/>
 <path style="fill:#ffffff;opacity:0.2" d="M 32 2 C 30.428501 2 28.85442 2.5850604 27.679688 3.7597656 L 3.7597656 27.683594 C 2.460141 28.983185 1.8843413 30.765757 2.0234375 32.498047 C 2.1343057 31.098695 2.7099225 29.73341 3.7597656 28.683594 L 27.679688 4.7597656 C 28.85442 3.5850604 30.428501 3 32 3 C 33.5715 3 35.143626 3.5850606 36.318359 4.7597656 L 60.238281 28.683594 C 61.288124 29.733411 61.86495 31.099905 61.976562 32.5 C 62.114731 30.76679 61.537906 28.983186 60.238281 27.683594 L 36.318359 3.7597656 C 35.143626 2.5850606 33.5715 2 32 2 z"/>
 <path d="m 9,11.001196 c -1.662,0 -3,1.338 -3,3 0,1.662 1.338,3 3,3 l 1,0 0,34 a 6.0006,6.0006 0 0 0 10.193359,4.291016 L 59.417969,16.96018 C 60.878602,16.756125 62,15.519808 62,14.001196 c 0,-1.662 -1.338,-3 -3,-3 l -14,0 c -1.662,0 -3,1.338 -3,3 0,0.888703 0.389896,1.676215 1,2.224609 l -21,20.523438 0,-19.748047 1,0 c 1.662,0 3,-1.338 3,-3 0,-1.662 -1.338,-3 -3,-3 l -14,0 z" style="opacity:0.2"/>
 <path style="fill:#cccccc" d="m 9,10.001165 c -1.662,0 -3,1.338 -3,3 0,1.662 1.338,3 3,3 l 1,0 0,34 a 6.0006,6.0006 0 0 0 10.193359,4.291016 L 59.417969,15.960149 C 60.878602,15.756094 62,14.519777 62,13.001165 c 0,-1.662 -1.338,-3 -3,-3 l -14,0 c -1.662,0 -3,1.338 -3,3 0,0.888703 0.389896,1.676215 1,2.224609 l -21,20.523438 0,-19.748047 1,0 c 1.662,0 3,-1.338 3,-3 0,-1.662 -1.338,-3 -3,-3 l -14,0 z"/>
 <path style="opacity:0.2;fill:#ffffff" d="M 9 10.001953 C 7.338 10.001953 6 11.339953 6 13.001953 C 6 13.173541 6.023374 13.338388 6.0507812 13.501953 C 6.2882006 12.080453 7.5090414 11.001953 9 11.001953 L 23 11.001953 C 24.490959 11.001953 25.711799 12.080453 25.949219 13.501953 C 25.976626 13.338388 26 13.173541 26 13.001953 C 26 11.339953 24.662 10.001953 23 10.001953 L 9 10.001953 z M 45 10.001953 C 43.338 10.001953 42 11.339953 42 13.001953 C 42 13.166256 42.027153 13.322002 42.052734 13.478516 C 42.299459 12.068348 43.517045 11.001953 45 11.001953 L 59 11.001953 C 60.498366 11.001953 61.724458 12.091451 61.953125 13.523438 C 61.982821 13.354012 62 13.18039 62 13.001953 C 62 11.339953 60.662 10.001953 59 10.001953 L 45 10.001953 z M 42.533203 15.683594 L 22 35.75 L 22 36.75 L 43 16.226562 C 42.82215 16.066702 42.669424 15.880677 42.533203 15.683594 z"/>
</svg>
